dist/assets/img/corporulia/latitudeus/messages/message_task_1.svg

<svg width="386" height="210" viewBox="0 0 386 210" fill="none" xmlns="http://www.w3.org/2000/svg">
<g filter="url(#filter0_di_1445_59867)">
<path fill-rule="evenodd" clip-rule="evenodd" d="M112.274 43.542C70.6546 59.5382 41.7463 80.0681 40.58 115.379C39.0854 160.629 104.098 158.964 163.827 157.435C172.399 157.216 180.862 156.999 189.004 156.924C191.486 156.901 194.011 156.882 196.57 156.862C234.796 156.567 280.777 156.213 311.495 143.751C314.909 142.366 318.911 143.191 321.857 145.403C326.56 148.936 333.539 152.557 339.746 151.407C340.33 151.299 340.487 150.577 340.035 150.191C336.184 146.9 333.067 144.236 330.547 140.074C328.709 137.039 329.969 133.266 332.538 130.818C338.983 124.675 343.373 117.063 345.029 107.625C352.077 67.4313 319.905 50.0694 276.642 37.7222C235.614 26.0127 169.416 21.5803 112.274 43.542Z" fill="white"/>
</g>
<defs>
<filter id="filter0_di_1445_59867" x="0.554688" y="0" width="385.445" height="210" filterUnits="userSpaceOnUse" color-interpolation-filters="sRGB">
<feFlood flood-opacity="0" result="BackgroundImageFix"/>
<feColorMatrix in="SourceAlpha" type="matrix" values="0 0 0 0 0 0 0 0 0 0 0 0 0 0 0 0 0 0 127 0" result="hardAlpha"/>
<feOffset dy="12"/>
<feGaussianBlur stdDeviation="20"/>
<feComposite in2="hardAlpha" operator="out"/>
<feColorMatrix type="matrix" values="0 0 0 0 0.909804 0 0 0 0 0.313726 0 0 0 0 0.470588 0 0 0 1 0"/>
<feBlend mode="normal" in2="BackgroundImageFix" result="effect1_dropShadow_1445_59867"/>
<feBlend mode="normal" in="SourceGraphic" in2="effect1_dropShadow_1445_59867" result="shape"/>
<feColorMatrix in="SourceAlpha" type="matrix" values="0 0 0 0 0 0 0 0 0 0 0 0 0 0 0 0 0 0 127 0" result="hardAlpha"/>
<feOffset dy="-4"/>
<feGaussianBlur stdDeviation="4"/>
<feComposite in2="hardAlpha" operator="arithmetic" k2="-1" k3="1"/>
<feColorMatrix type="matrix" values="0 0 0 0 0.909804 0 0 0 0 0.313726 0 0 0 0 0.470588 0 0 0 0.16 0"/>
<feBlend mode="normal" in2="shape" result="effect2_innerShadow_1445_59867"/>
</filter>
</defs>
</svg>

<svg width="386" height="210" viewBox="0 0 386 210" fill="none" xmlns="http://www.w3.org/2000/svg"><g filter="url(#filter0_di_1445_59867)"><path fill-rule="evenodd" clip-rule="evenodd" d="M112.274 43.542c-41.62 15.996-70.528 36.526-71.694 71.837-1.495 45.25 63.518 43.585 123.247 42.056 8.572-.219 17.035-.436 25.177-.511 2.482-.023 5.007-.042 7.566-.062 38.226-.295 84.207-.649 114.925-13.111 3.414-1.385 7.416-.56 10.362 1.652 4.703 3.533 11.682 7.154 17.889 6.004.584-.108.741-.83.289-1.216-3.851-3.291-6.968-5.955-9.488-10.117-1.838-3.035-.578-6.808 1.991-9.256 6.445-6.143 10.835-13.755 12.491-23.193 7.048-40.194-25.124-57.556-68.387-69.903-41.028-11.71-107.226-16.142-164.368 5.82z" fill="#fff"/></g><defs><filter id="filter0_di_1445_59867" x=".555" y="0" width="385.445" height="210" filterUnits="userSpaceOnUse" color-interpolation-filters="sRGB"><feFlood flood-opacity="0" result="BackgroundImageFix"/><feColorMatrix in="SourceAlpha" values="0 0 0 0 0 0 0 0 0 0 0 0 0 0 0 0 0 0 127 0" result="hardAlpha"/><feOffset dy="12"/><feGaussianBlur stdDeviation="20"/><feComposite in2="hardAlpha" operator="out"/><feColorMatrix values="0 0 0 0 0.909804 0 0 0 0 0.313726 0 0 0 0 0.470588 0 0 0 1 0"/><feBlend in2="BackgroundImageFix" result="effect1_dropShadow_1445_59867"/><feBlend in="SourceGraphic" in2="effect1_dropShadow_1445_59867" result="shape"/><feColorMatrix in="SourceAlpha" values="0 0 0 0 0 0 0 0 0 0 0 0 0 0 0 0 0 0 127 0" result="hardAlpha"/><feOffset dy="-4"/><feGaussianBlur stdDeviation="4"/><feComposite in2="hardAlpha" operator="arithmetic" k2="-1" k3="1"/><feColorMatrix values="0 0 0 0 0.909804 0 0 0 0 0.313726 0 0 0 0 0.470588 0 0 0 0.16 0"/><feBlend in2="shape" result="effect2_innerShadow_1445_59867"/></filter></defs></svg>
